X: 3251
T: Totur
B:[[Notböcker/Melodier til gamle danske Almuedanse for Violin solo]]
O:Danmark
Z:Søren Bak Vestergaard
M: 2/4
L: 1/8
K: A
e|cAce|a2 e2|cAce|a2 c2|d2 b2|c2 a2|B2 g2|a2 z:|\
|:c|dfBd|ceAc|BEGB|Acec|dfBd|ceAc|BEGB|A2 z:|
(:musicend:)
(:music:)
